data/resources/icons/scalable/actions/code-symbolic.svg

<?xml version="1.0" encoding="UTF-8"?>
<svg xmlns="http://www.w3.org/2000/svg" height="16px" viewBox="0 0 16 16" width="16px"><g fill="#222222"><path d="m 10 4 v 1 c 0 0.257812 0.128906 0.527344 0.3125 0.71875 l 2.25 2.28125 l -2.25 2.28125 c -0.183594 0.191406 -0.3125 0.460938 -0.3125 0.71875 v 1 h 1 c 0.308594 0 0.550781 -0.089844 0.75 -0.28125 l 3.65625 -3.71875 l -3.65625 -3.71875 c -0.199219 -0.191406 -0.441406 -0.28125 -0.75 -0.28125 z m 0 0"/><path d="m 6 4 v 1 c 0 0.257812 -0.128906 0.527344 -0.3125 0.71875 l -2.25 2.28125 l 2.25 2.28125 c 0.183594 0.191406 0.3125 0.460938 0.3125 0.71875 v 1 h -1 c -0.308594 0 -0.550781 -0.089844 -0.75 -0.28125 l -3.65625 -3.71875 l 3.65625 -3.71875 c 0.199219 -0.191406 0.441406 -0.28125 0.75 -0.28125 z m 0 0"/></g></svg>

<svg xmlns="http://www.w3.org/2000/svg" width="16" height="16"><path fill="#222" d="M10 4v1c0 .258.129.527.313.719L12.563 8l-2.25 2.281c-.184.192-.313.461-.313.719v1h1c.309 0 .55-.09.75-.281L15.406 8 11.75 4.281C11.55 4.09 11.309 4 11 4zM6 4v1c0 .258-.129.527-.313.719L3.438 8l2.25 2.281c.184.192.313.461.313.719v1H5c-.309 0-.55-.09-.75-.281L.594 8 4.25 4.281C4.45 4.09 4.691 4 5 4zm0 0"/></svg>
